X:2
T:Behind the Bush in the Garden
R:jig
L:1/8
C:Syracuse session setting
M:6/8
K:Amin
B|"Am"c2A AGE|c2A AGE|"G"G2G GAE|G3 E2B|
"Am"c2d e2a|g2e d2e|"F"c2A "G"BAG|"Am"A3 A2:|
B|"C"c2B c2d|efe e2d|"Am"c2 B c2 d|e3 "Em"G2 G|
"C"c2B c2d|efe e2d|"Am"cBA "G"BAG|"Am"A3 A2B|
"C"c2B c2d|efe e2d|"Am"c2B c2d|e3 "Em"G2G|
"C"c2d e2a|g2e d2e|"Am"c2A "G"BAG|"Am"A3 A2|]
